X:1
T:Title
%%score { ( 1 2 ) | ( 3 4 ) }
L:1/8
M:4/4
K:Eb
V:1 treble nm="Grand Piano"
V:2 treble 
V:3 bass 
V:4 bass 
V:1
 z4 z2[Q:1/4=100] z F | G2 G2 GFGA | [B,GB]4 [Ge]2 [Ac]2 | [GB]2 [Ge]2 [EGB]2 [B,EG]2 | z4 z2 E2 | %5
 G2 G2 GFGA | [B,GB]4 [Ge]2 [Ac]2 | [GB]2 E-[CEF] [B,EG]2 [A,DF]2 | [G,E]6 [B,GB]2 | %9
 [Ge]2 [Gd]2 [Gf]2 [Ge]2 | c2 e4 c2 | [GB]2 [Ge]2 [EGB]3 [B,EG] | [B,DF]6 E-[EF] | G2 G2 GFGA | %14
 [B,GB]2 [Ge]4 [B,EG]2 | [CEF]2 [Ec]2 [DB]A[B,EG]F |[M:3/4] E6 |[M:1/4] EF |[M:4/4] G2 G2 GFGA | %19
 [B,GB]4 [Ge]4 |[M:9/8] c3- c e2- e e2 |[M:4/4] [Ge]2 [B,EG]2 [EGB][FA][B,EG][DF] | %22
[M:3/4] [G,E]6 |] %23
V:2
 z4 z2 E2 | x8 | x8 | x8 | [B,DF]6 G,F | x8 | x8 | z2 .B,2 z4 | x8 | x8 | x8 | x8 | z4 z2 .G,2 | %13
 x8 | x8 | x8 |[M:3/4] x6 |[M:1/4] x2 |[M:4/4] x8 | x8 |[M:9/8] x9 |[M:4/4] x8 |[M:3/4] x6 |] %23
V:3
 z4 z2 G,A, | [E,B,E]2 [E,B,E]2 EDEF | E,4 [E,B,]2 [E,E]2 | [E,E]2 [E,B,]2 E,2 E,2 | B,,6 z A, | %5
 [E,B,E]2 [E,B,E]2 EDEF | E,4 [E,B,]2 [E,E]2 | [E,E]2 G,,A,, B,,2 B,,2 | E,6 E,2 | %9
 [E,B,]2 [E,B,]2 [E,B,]2 [E,E]2 | [A,EA]2 [A,CA]4 [A,EA]2 | [E,E]2 [E,B,]2 E,3 E, | B,,6 z A, | %13
 [E,B,E]2 [E,B,E]2 EDEF | E,2 [E,B,]4 E,2 | A,,2 [A,,A,]2 z F z [A,D] |[M:3/4] [E,G,]6 | %17
[M:1/4] [E,G,][E,A,E] |[M:4/4] [E,B,E]2 [E,B,E]2 EDEF | E,4 [E,B,]4 | %20
[M:9/8][K:treble] [A,E]3- [A,E] [A,CE]2- [A,CE] [A,CA]2 |[M:4/4][K:bass] [E,B,]2 E,2 z B, z A, | %22
[M:3/4] E,6 |] %23
V:4
 z4 z2 E,2 | z4 [E,B,]2 [E,B,]2 | x8 | x8 | z4 z2 E,2 | z4 [E,B,]2 [E,B,]2 | x8 | x8 | x8 | x8 | %10
 x8 | x8 | z4 z2 E,2 | z4 [E,B,]2 [E,B,]2 | x8 | z4 [B,,F,]2 B,,2 |[M:3/4] x6 |[M:1/4] x2 | %18
[M:4/4] z4 [E,B,]2 [E,B,]2 | x8 |[M:9/8][K:treble] x9 |[M:4/4][K:bass] z4 B,,2 B,,2 |[M:3/4] x6 |] %23

